svgs/duotone/clapperboard.svg

<svg xmlns="http://www.w3.org/2000/svg" viewBox="0 0 512 512"><!-- Font Awesome Pro 6.0.0-alpha2 by @fontawesome - https://fontawesome.com License - https://fontawesome.com/license (Commercial License) --><defs><style>.fa-secondary{opacity:.4}</style></defs><path d="M512 160V416C512 451.346 483.346 480 448 480H64C28.654 480 0 451.346 0 416V160H512Z" class="fa-secondary"/><path d="M497.748 56.189L393.938 160H512V96C512 80.867 506.529 67.146 497.748 56.189ZM64 32C28.654 32 0 60.654 0 96V160H6.062L134.062 32H64ZM201.938 32L73.938 160H166.062L294.062 32H201.938ZM448 32H361.938L233.938 160H326.062L453.508 32.555C451.662 32.395 449.887 32 448 32Z" class="fa-primary"/></svg>

<svg xmlns="http://www.w3.org/2000/svg" viewBox="0 0 512 512"><!--! Font Awesome Pro 6.3.0 by @fontawesome - https://fontawesome.com License - https://fontawesome.com/license (Commercial License) Copyright 2023 Fonticons, Inc. --><defs><style>.fa-secondary{opacity:.4}</style></defs><path class="fa-primary" d="M497.7 56.19L393.9 160H512V96C512 80.87 506.5 67.15 497.7 56.19zM64 32C28.65 32 0 60.65 0 96v64h6.062l128-128H64zM201.9 32l-128 128h92.13l128-128H201.9zM448 32h-86.06l-128 128h92.13l127.4-127.4C451.7 32.39 449.9 32 448 32z"/><path class="fa-secondary" d="M512 160v256c0 35.35-28.65 64-64 64H64c-35.35 0-64-28.65-64-64V160H512z"/></svg>
